X:13
L:1/8
M:4/4
K:Bb
G,A,B,A, G,A,B,A, | G,A,B,A, D4 | A,B,CB, A,B,CB, | A,B,CB, A,4 |
 z/ G,A,B,A, G,A,B,A, | G,A,B,A, D4 | dDFA cBAF | FAcA G4 ||
 GABc d2 z2 | FGAB c2 z2 |  GABc d2 z2 | dedc dcBA |
 GABc d2 z2 | FGAB c2 z2 | GABc d2 z2 | cFcA G4 |]

